X: 1
T: Pousteno "Boufsko"
O: Makedonija
S: handwritten MS from David Skidmore
Q: 3/8 2/8 2/8 3/8 2/8
M: 12/8
L: 1/8
K: Cdor
"A"|: (4:3:3c'2gg gg ~gf (4~gfef ~ed | (4ABBF Bz gf (4~gfef ~ed |
   |  (4ABBD Bz gf (4gfef ~ed |1 (4cdef ~dc dB (4cdef g2 :|2 (4cdef ~dc dB c3- cd ||
"B"|: (4edef dc dB (4ABcd ef |1 (4edef dc dB (4:3:2c2B f2 :|2 (4edef dc dB c2G c2 :|
"C"|: {D}(4ABcd ec dB (4:3:3~c2BA GF |1 (4ABcd ec dB ~c2B f>F :|2 (4ABcd ec dB ~c3- {G}c2 :|
"D"|: (4fefg e2- e2 (4:3:3~f2ef g2 | (4g_agf ef dB ~c2G c2 :|
"E"|: (4g_agf ef dB (4=ABcd ef |1 (4g_agf ef dB (4cB=AB c2 :|2 (4g_agf ef dB c3- c2 |]
%%text Play C A B, 24-bar taksim to keyshift:
K:BbLyd=e_d
|: (B3 B2 B2 B3 B2 :|\
"F"|: (4BBBB cd ef (4fedc B2 |1 (4cdef ed cB (4_agfe f2 :|2 (4cdef ed cB (4dcBA B2 :|
